!! 00000] TT[WS
!!!OTL: Da zicun
!!!ARE: Asia, China, Shanxi Dingxiang
!! Ethnic Group: Han
!! WI, 312 (1)
!!!SCT: J0377
!!!YEM: Copyright 1995, estate of Helmut Schaffrath.
**kern
*ICvox
*Ivox
*M2/4
*k[b-]
*F:
{8ff
16dd
16cc
16dd
16cc
16dd
16ff
=1
8cc
4cc
8ff
=2
16dd
16ff
16dd
16cc
8a
16cc
16dd
=3
8f
4f
8d}
=4
{16f
16f
16f
16dd
8cc
16cc
16a
=5
8g
16a
16cc
8cc
8e
=6
16g
16a
16g
16a
8cc
8e
=7
8d
16c
16d
8.e
16d
=8
2c}
==
!!!AGN: Xiaodiao. Xinminge, Xuanchuan
!! Neue Text. Politische Liede
!!!ONB: ESAC (Essen Associative Code) Database: CHINA
!!!AMT: simple duple
!!!AIN: vox
!!!EED: Helmut Schaffrath
!!!EEV: 1.0
*-
